X:40
M:3/4
L:1/4
K:C
G | E/ F/ G A | G2 c | c/ B/ A A | G2 G | E/ F/ G G | A/ B/ c !sintro!B |  c/ A/ G G | G2 !eintro!|]
